Origami/24x24/apps/chrome-jjphmlaoffndcnecccgemfdaaoighkel-Default.svg

<svg width="24" height="24" version="1" xmlns="http://www.w3.org/2000/svg">
 <path d="m3 22.5c-0.554 0-1-0.446-1-1v-0.5c0 0.554 0.446 1 1 1h18c0.554 0 1-0.446 1-1v0.5c0 0.554-0.446 1-1 1z" style="opacity:.2"/>
 <rect transform="matrix(0,-1,-1,0,0,0)" x="-22" y="-22" width="20" height="20" rx="1" ry="1" style="fill:#c2352a"/>
 <path d="m3 2c-0.554 0-1 0.446-1 1v0.5c0-0.554 0.446-1 1-1h18c0.554 0 1 0.446 1 1v-0.5c0-0.554-0.446-1-1-1z" style="fill:#ffffff;opacity:.1"/>
 <path d="m12.148438 7.5c-1.69-5e-4 -4.1027724 0.1030531-4.8261724 0.1269531-0.7865 0.0716-1.0768593 0.1130281-1.5058594 0.4863281-0.6604999 0.5922001-0.8164062 1.7563094-0.8164062 3.5371098v1.693359c0 2.031 0.2651312 3.066359 0.7070312 3.443359 0.5049001 0.442 0.8395282 0.473391 1.1738282 0.525391 0.1302 0.02 1.0548437 0.1875 5.1523436 0.1875 2.555 0 4.749563-0.125344 4.976563-0.152344 0.366-0.048 0.885109-0.113547 1.287109-0.560547 0.587-0.677 0.703125-1.80164 0.703125-3.43164v-1.972657c0-1.0546-0.05712-2.5429682-0.703125-3.1679682-0.49-0.4210001-0.667687-0.5394969-1.679687-0.5917969-0.286001-0.0127-2.777751-0.1225469-4.46875-0.1230469zm-1.148438 2l4 3-4 3z" style="opacity:.2"/>
 <path d="m12.148438 7c-1.69-5e-4 -4.1027724 0.1030531-4.8261724 0.1269531-0.7865 0.0716-1.0768593 0.1130281-1.5058594 0.4863281-0.6604999 0.5922001-0.8164062 1.7563094-0.8164062 3.5371098v1.693359c0 2.031 0.2651312 3.066359 0.7070312 3.443359 0.5049001 0.442 0.8395282 0.473391 1.1738282 0.525391 0.1302 0.02 1.0548437 0.1875 5.1523436 0.1875 2.555 0 4.749563-0.125344 4.976563-0.152344 0.366-0.048 0.885109-0.113547 1.287109-0.560547 0.587-0.677 0.703125-1.80164 0.703125-3.43164v-1.972657c0-1.0545995-0.057125-2.5429682-0.703125-3.1679682-0.49-0.4210001-0.667687-0.5394969-1.679687-0.5917969-0.286001-0.0127-2.777751-0.1225469-4.46875-0.1230469zm-1.148438 2l4 3-4 3v-6z" style="fill:#f9f9f9"/>
 <circle cx="17" cy="17" r="6" style="fill:#03a9f4"/>
 <path d="m19 13 3 3h-1l-2 2c1.5 1.5-0.5 2.5-0.5 2.5l-1.5-1.5-2 2h-1v-1l2-2-1.5-1.5s1-2 2.5-0.5l2-2z" style="fill:#ffffff"/>
</svg>

<svg xmlns="http://www.w3.org/2000/svg" width="24" height="24" version="1">
 <path style="opacity:0.2" d="m3 22.5c-0.554 0-1-0.446-1-1v-0.5c0 0.554 0.446 1 1 1h18c0.554 0 1-0.446 1-1v0.5c0 0.554-0.446 1-1 1z"/>
 <rect style="fill:#c2352a" width="20" height="20" x="-22" y="-22" rx="1" ry="1" transform="matrix(0,-1,-1,0,0,0)"/>
 <path style="opacity:0.1;fill:#ffffff" d="m3 2c-0.554 0-1 0.446-1 1v0.5c0-0.554 0.446-1 1-1h18c0.554 0 1 0.446 1 1v-0.5c0-0.554-0.446-1-1-1z"/>
 <path style="opacity:0.2" d="m 12.148438,7.5 c -1.69,-5e-4 -4.1027724,0.1030531 -4.8261724,0.1269531 -0.7865,0.0716 -1.0768593,0.1130281 -1.5058594,0.4863281 C 5.1559063,8.7054813 5,9.8695906 5,11.650391 v 1.693359 c 0,2.031 0.2651312,3.066359 0.7070312,3.443359 0.5049001,0.442 0.8395282,0.473391 1.1738282,0.525391 0.1302,0.02 1.0548437,0.1875 5.1523436,0.1875 2.555,0 4.749563,-0.125344 4.976563,-0.152344 0.366,-0.048 0.885109,-0.113547 1.287109,-0.560547 C 18.883875,16.110109 19,14.985469 19,13.355469 v -1.972657 c 0,-1.0546 -0.05712,-2.5429682 -0.703125,-3.1679682 -0.49,-0.4210001 -0.667687,-0.5394969 -1.679687,-0.5917969 C 16.331187,7.6103469 13.839437,7.5005 12.148438,7.5 Z M 11,9.5 l 4,3 -4,3 z"/>
 <path style="fill:#f9f9f9" d="M 12.148438 7 C 10.458438 6.9995 8.0456656 7.1030531 7.3222656 7.1269531 C 6.5357656 7.1985531 6.2454063 7.2399812 5.8164062 7.6132812 C 5.1559063 8.2054813 5 9.3695906 5 11.150391 L 5 12.84375 C 5 14.87475 5.2651312 15.910109 5.7070312 16.287109 C 6.2119313 16.729109 6.5465594 16.7605 6.8808594 16.8125 C 7.0110594 16.8325 7.9357031 17 12.033203 17 C 14.588203 17 16.782766 16.874656 17.009766 16.847656 C 17.375766 16.799656 17.894875 16.734109 18.296875 16.287109 C 18.883875 15.610109 19 14.485469 19 12.855469 L 19 10.882812 C 19 9.8282125 18.942875 8.3398438 18.296875 7.7148438 C 17.806875 7.2938437 17.629188 7.1753469 16.617188 7.1230469 C 16.331187 7.1103469 13.839437 7.0005 12.148438 7 z M 11 9 L 15 12 L 11 15 L 11 9 z"/>
 <g>
  <circle style="fill:#03a9f4" cx="17" cy="17" r="6"/>
  <path style="fill:#ffffff" d="m 19,13 3,3 h -1 l -2,2 c 1.5,1.5 -0.5,2.5 -0.5,2.5 L 17,19 15,21 h -1 v -1 l 2,-2 -1.5,-1.5 c 0,0 1,-2 2.5,-0.5 l 2,-2 z"/>
 </g>
</svg>
